X: 144
T: I'm a Poor Rambling Boy
N:"Plaintive"
B:O'Neill's 144
Z:Transcribed by henrik.norbeck@mailbox.swipnet.se
M:3/4
L:1/8
K:Gm
(d>c)|(B>A) (G>^F) (DF)|(.G.G) G2 (.B.B)|(B>c) (df ec)|d4 (.B.B)|
(~B>c) (df ec)|d4 (d>c)|(B>A) (G>^F) (DF)|(.G.G) G2||


